Obsidian-SemiLight/actions/24s/go-next-context.svg

<svg viewBox="0 0 24 24" xmlns="http://www.w3.org/2000/svg"><path d="m3 4v16h14l4-8-4-8zm5.4277344 4v.5917969c-.7107 0-.7207032.2391587-.7207032 1.1054687v1.0175784c0 .41547-.1236162 1.032712-.7226562 1.289062.59904.25635.7226563.875556.7226562 1.291016v1.007812c0 .86631.0099802 1.105469.7207032 1.105469v.591797c-1.06609 0-1.5136719-.352246-1.5136719-1.253906v-1.222656c0-.556911-.020485-1.201172-.609375-1.201172h-.3046875v-.644532h.3046875c.58887 0 .609375-.644262.609375-1.201172v-1.2226558c0-.9016599.4475819-1.2539062 1.5136719-1.2539062zm3.1367186 0c1.0661 0 1.521484.3522463 1.521485 1.2539062v1.2226558c-.00001.556911.0404 1.201172.61914 1.201172h.294922v.644532h-.294922c-.57874 0-.619141.644261-.61914 1.201172v1.222656c-.00001.90166-.455385 1.253906-1.521485 1.253906v-.591797c.71082 0 .728516-.239159.728516-1.105469v-1.007812c0-.41546.123606-1.034666.722656-1.291016-.59905-.25635-.722656-.873592-.722656-1.289062v-1.0175784c0-.86631-.01779-1.1054687-.728516-1.1054687z" fill="#4d4d4d"/></svg>

<svg xmlns="http://www.w3.org/2000/svg" viewBox="0 0 24 24">
  <defs id="defs3051">
    <style type="text/css" id="current-color-scheme">
      .ColorScheme-Text {
        color:#4d4d4d;
      }
      </style>
  </defs>
 <path style="fill:currentColor;fill-opacity:1;stroke:none" 
     d="M 3 4 L 3 20 L 17 20 L 21 12 L 17 4 L 3 4 z M 8.4277344 8 L 8.4277344 8.5917969 C 7.7170344 8.5917969 7.7070312 8.8309556 7.7070312 9.6972656 L 7.7070312 10.714844 C 7.7070312 11.130314 7.583415 11.747556 6.984375 12.003906 C 7.583415 12.260256 7.7070313 12.879462 7.7070312 13.294922 L 7.7070312 14.302734 C 7.7070312 15.169044 7.7170114 15.408203 8.4277344 15.408203 L 8.4277344 16 C 7.3616444 16 6.9140625 15.647754 6.9140625 14.746094 L 6.9140625 13.523438 C 6.9140625 12.966527 6.8935775 12.322266 6.3046875 12.322266 L 6 12.322266 L 6 11.677734 L 6.3046875 11.677734 C 6.8935575 11.677734 6.9140625 11.033472 6.9140625 10.476562 L 6.9140625 9.2539062 C 6.9140625 8.3522463 7.3616444 8 8.4277344 8 z M 11.564453 8 C 12.630553 8 13.085937 8.3522463 13.085938 9.2539062 L 13.085938 10.476562 C 13.085928 11.033473 13.126338 11.677734 13.705078 11.677734 L 14 11.677734 L 14 12.322266 L 13.705078 12.322266 C 13.126338 12.322266 13.085937 12.966527 13.085938 13.523438 L 13.085938 14.746094 C 13.085928 15.647754 12.630553 16 11.564453 16 L 11.564453 15.408203 C 12.275273 15.408203 12.292969 15.169044 12.292969 14.302734 L 12.292969 13.294922 C 12.292969 12.879462 12.416575 12.260256 13.015625 12.003906 C 12.416575 11.747556 12.292969 11.130314 12.292969 10.714844 L 12.292969 9.6972656 C 12.292969 8.8309556 12.275179 8.5917969 11.564453 8.5917969 L 11.564453 8 z "
     class="ColorScheme-Text"
     />
</svg>
